svg/other/shower_gel_line.svg

<svg xmlns="http://www.w3.org/2000/svg" width="24" height="24" viewBox="0 0 24 24"><g fill="none" fill-rule="evenodd"><path d="M24,0 L24,24 L0,24 L0,0 L24,0 Z M12.5935,23.2578 L12.5819,23.2595 L12.5109,23.295 L12.4919,23.2987 L12.4767,23.295 L12.4057,23.2595 C12.3958,23.2564 12.387,23.259 12.3821,23.2649 L12.378,23.2758 L12.3609,23.7031 L12.3659,23.7235 L12.3769,23.7357 L12.4805,23.8097 L12.4953,23.8136 L12.5071,23.8097 L12.6107,23.7357 L12.6233,23.7197 L12.6267,23.7031 L12.6096,23.2758 C12.6076,23.2657 12.601,23.2593 12.5935,23.2578 Z M12.8584,23.1453 L12.8445,23.1473 L12.6598,23.2397 L12.6499,23.2499 L12.6472,23.2611 L12.6651,23.6906 L12.6699,23.7034 L12.6784,23.7105 L12.8793,23.8032 C12.8914,23.8069 12.9022,23.803 12.9078,23.7952 L12.9118,23.7812 L12.8777,23.1665 C12.8753,23.1546 12.8674,23.147 12.8584,23.1453 Z M12.143,23.1473 C12.1332,23.1424 12.1222,23.1453 12.1156,23.1526 L12.1099,23.1665 L12.0758,23.7812 C12.0751,23.7927 12.0828,23.8019 12.0926,23.8046 L12.1083,23.8032 L12.3092,23.7105 L12.3186,23.7024 L12.3225,23.6906 L12.3404,23.2611 L12.3372,23.2485 L12.3278,23.2397 L12.143,23.1473 Z"/><path fill="#09244B" d="M8,3 C8,2.44772 8.44772,2 9,2 L13,2 C13.5523,2 14,2.44772 14,3 C14,3.55228 13.5523,4 13,4 L13,6 L14.5585,6 C15.8498,6 16.9962,6.82629 17.4045,8.05132 L18.6408,11.7601 C18.8787,12.4738 19,13.2213 19,13.9737 L19,19 C19,20.6569 17.6569,22 16,22 L8,22 C6.34315,22 5,20.6569 5,19 L5,13.9737 C5,13.2213 5.1213,12.4738 5.35922,11.7601 L6.59547,8.05132 C7.00381,6.82629 8.15023,6 9.44152,6 L11,6 L11,4 L9,4 C8.44772,4 8,3.55228 8,3 Z M9.44152,8 C9.01109,8 8.62895,8.27543 8.49284,8.68377 L7.72076,11 L10,11 C10.5523,11 11,11.4477 11,12 C11,12.5523 10.5523,13 10,13 L7.09572,13 C7.03216,13.3202 7,13.6463 7,13.9737 L7,19 C7,19.5523 7.44772,20 8,20 L16,20 C16.5523,20 17,19.5523 17,19 L17,13.9737 C17,13.4363 16.9134,12.9024 16.7434,12.3925 L15.5072,8.68377 C15.371,8.27543 14.9889,8 14.5585,8 L9.44152,8 Z"/></g></svg>

<svg xmlns="http://www.w3.org/2000/svg" width="24" height="24"><g fill="none" fill-rule="evenodd"><path d="M24 0v24H0V0zM12.594 23.258l-.012.002-.071.035-.02.004-.014-.004-.071-.036c-.01-.003-.019 0-.024.006l-.004.01-.017.428.005.02.01.013.104.074.015.004.012-.004.104-.074.012-.016.004-.017-.017-.427c-.002-.01-.009-.017-.016-.018m.264-.113-.014.002-.184.093-.01.01-.003.011.018.43.005.012.008.008.201.092c.012.004.023 0 .029-.008l.004-.014-.034-.614c-.003-.012-.01-.02-.02-.022m-.715.002a.023.023 0 0 0-.027.006l-.006.014-.034.614c0 .012.007.02.017.024l.015-.002.201-.093.01-.008.003-.011.018-.43-.003-.012-.01-.01z"/><path fill="#09244B" d="M8 3a1 1 0 0 1 1-1h4a1 1 0 1 1 0 2v2h1.559a3 3 0 0 1 2.845 2.051l1.237 3.71A7 7 0 0 1 19 13.973V19a3 3 0 0 1-3 3H8a3 3 0 0 1-3-3v-5.026a7 7 0 0 1 .36-2.214l1.235-3.709A3 3 0 0 1 9.442 6H11V4H9a1 1 0 0 1-1-1m1.442 5a1 1 0 0 0-.95.684L7.722 11H10a1 1 0 1 1 0 2H7.096a5 5 0 0 0-.096.974V19a1 1 0 0 0 1 1h8a1 1 0 0 0 1-1v-5.026a5 5 0 0 0-.257-1.582l-1.236-3.708A1 1 0 0 0 14.56 8z"/></g></svg>
